X:157
T:Camptown Races
C:Stephen Foster, 1850
S:Colin Hume's website,  colinhume.com  - chords can also be printed below the stave.
Q:1/2=112
M:2/2
R:Reel
L:1/4
%%MIDI ratio 3 1
%%MIDI chordprog 105    % Banjo
%%MIDI bassprog 39      % Synth Bass 2
%%MIDI program 71       % Clarinet
K:D
P:A
|: A | "D"AA FA | BA F2 | "A7"FE3 | FE zA | "D"AA FA | BA F2 | "A7"E2 FE | "D"D3 :|
P:B
|: z | "D"D>D FA | "D7"d4 | "G"B>B dB | "D"A3 F | "D"AA FA | BA F2 | "A7"EF/G/ FE/E/ | "D"D3 :|

